src/assets/fleet-icons/dashboard.svg

<svg width="20" height="20" viewBox="0 0 20 20" fill="none" xmlns="http://www.w3.org/2000/svg">
    <path
        d="M15.8275 10.8125H12.7975C12.1114 10.8125 11.7012 10.653 11.4604 10.4225C11.2239 10.1962 11.0625 9.81656 11.0625 9.175V4.075C11.0625 3.43477 11.225 3.05481 11.4627 2.82793C11.705 2.59672 12.1157 2.4375 12.7975 2.4375H15.8275C16.5136 2.4375 16.9238 2.59701 17.1646 2.82749C17.4011 3.05383 17.5625 3.43344 17.5625 4.075V9.175C17.5625 9.81523 17.4 10.1952 17.1623 10.4221C16.92 10.6533 16.5093 10.8125 15.8275 10.8125ZM12.7975 2.5625C12.3227 2.5625 11.8485 2.61435 11.5318 2.93113C11.2112 3.25167 11.1875 3.71001 11.1875 4.075V9.175C11.1875 9.53998 11.2112 9.99833 11.5318 10.3189C11.8485 10.6356 12.3227 10.6875 12.7975 10.6875H15.8275C16.3023 10.6875 16.7765 10.6356 17.0932 10.3189C17.4138 9.99833 17.4375 9.53998 17.4375 9.175V4.075C17.4375 3.71002 17.4138 3.25167 17.0932 2.93113C16.7765 2.61435 16.3023 2.5625 15.8275 2.5625H12.7975ZM15.8275 17.5625H12.7975C12.1114 17.5625 11.7012 17.403 11.4604 17.1725C11.2239 16.9462 11.0625 16.5666 11.0625 15.925V14.575C11.0625 13.9348 11.225 13.5548 11.4627 13.3279C11.705 13.0967 12.1157 12.9375 12.7975 12.9375H15.8275C16.5136 12.9375 16.9238 13.097 17.1646 13.3275C17.4011 13.5538 17.5625 13.9334 17.5625 14.575V15.925C17.5625 16.5652 17.4 16.9452 17.1623 17.1721C16.92 17.4033 16.5093 17.5625 15.8275 17.5625ZM12.7975 13.0625C12.3227 13.0625 11.8485 13.1144 11.5318 13.4311C11.2112 13.7517 11.1875 14.21 11.1875 14.575V15.925C11.1875 16.29 11.2112 16.7483 11.5318 17.0689C11.8485 17.3856 12.3227 17.4375 12.7975 17.4375H15.8275C16.3023 17.4375 16.7765 17.3856 17.0932 17.0689C17.4138 16.7483 17.4375 16.29 17.4375 15.925V14.575C17.4375 14.21 17.4138 13.7517 17.0932 13.4311C16.7765 13.1144 16.3023 13.0625 15.8275 13.0625H12.7975ZM7.2025 17.5625H4.1725C3.48635 17.5625 3.07623 17.403 2.83538 17.1725C2.59887 16.9462 2.4375 16.5666 2.4375 15.925V10.825C2.4375 10.1848 2.60005 9.80481 2.83774 9.57793C3.07996 9.34672 3.49073 9.1875 4.1725 9.1875H7.2025C7.88865 9.1875 8.29877 9.34701 8.53962 9.57749C8.77613 9.80383 8.9375 10.1834 8.9375 10.825V15.925C8.9375 16.5652 8.77495 16.9452 8.53726 17.1721C8.29504 17.4033 7.88427 17.5625 7.2025 17.5625ZM4.1725 9.3125C3.69772 9.3125 3.22354 9.36435 2.90676 9.68114C2.58623 10.0017 2.5625 10.46 2.5625 10.825V15.925C2.5625 16.29 2.58623 16.7483 2.90676 17.0689C3.22354 17.3856 3.69772 17.4375 4.1725 17.4375H7.2025C7.67728 17.4375 8.15146 17.3856 8.46824 17.0689C8.78877 16.7483 8.8125 16.29 8.8125 15.925V10.825C8.8125 10.46 8.78877 10.0017 8.46824 9.68114C8.15146 9.36435 7.67728 9.3125 7.2025 9.3125H4.1725ZM7.2025 7.0625H4.1725C3.48635 7.0625 3.07623 6.90299 2.83538 6.67251C2.59887 6.44617 2.4375 6.06656 2.4375 5.425V4.075C2.4375 3.43477 2.60005 3.05481 2.83774 2.82793C3.07996 2.59672 3.49073 2.4375 4.1725 2.4375H7.2025C7.88865 2.4375 8.29877 2.59701 8.53962 2.82749C8.77613 3.05383 8.9375 3.43344 8.9375 4.075V5.425C8.9375 6.06523 8.77495 6.44519 8.53726 6.67207C8.29504 6.90328 7.88427 7.0625 7.2025 7.0625ZM4.1725 2.5625C3.69772 2.5625 3.22354 2.61435 2.90676 2.93113C2.58623 3.25167 2.5625 3.71001 2.5625 4.075V5.425C2.5625 5.78999 2.58623 6.24833 2.90676 6.56887C3.22354 6.88565 3.69772 6.9375 4.1725 6.9375H7.2025C7.67728 6.9375 8.15146 6.88565 8.46824 6.56887C8.78877 6.24833 8.8125 5.78999 8.8125 5.425V4.075C8.8125 3.71001 8.78877 3.25167 8.46824 2.93113C8.15146 2.61435 7.67728 2.5625 7.2025 2.5625H4.1725Z"
        stroke="currentColor" />
</svg>

<svg width="20" height="20" fill="none" xmlns="http://www.w3.org/2000/svg">
    <path
        d="M15.828 10.813h-3.03c-.687 0-1.097-.16-1.338-.39-.236-.227-.398-.606-.398-1.248v-5.1c0-.64.163-1.02.4-1.247.243-.231.654-.39 1.335-.39h3.03c.687 0 1.097.159 1.338.39.236.226.398.605.398 1.247v5.1c0 .64-.163 1.02-.4 1.247-.243.231-.654.39-1.335.39Zm-3.03-8.25c-.475 0-.95.051-1.266.368-.32.32-.345.779-.345 1.144v5.1c0 .365.024.823.345 1.144.316.317.79.368 1.265.368h3.03c.475 0 .95-.051 1.266-.368.32-.32.345-.779.345-1.144v-5.1c0-.365-.024-.823-.345-1.144-.317-.317-.79-.369-1.265-.369h-3.03Zm3.03 15h-3.03c-.687 0-1.097-.16-1.338-.39-.236-.227-.398-.606-.398-1.248v-1.35c0-.64.163-1.02.4-1.247.243-.231.654-.39 1.335-.39h3.03c.687 0 1.097.159 1.338.39.236.226.398.605.398 1.247v1.35c0 .64-.163 1.02-.4 1.247-.243.231-.654.39-1.335.39Zm-3.03-4.5c-.475 0-.95.051-1.266.368-.32.32-.345.779-.345 1.144v1.35c0 .365.024.823.345 1.144.316.317.79.369 1.265.369h3.03c.475 0 .95-.052 1.266-.37.32-.32.345-.778.345-1.143v-1.35c0-.365-.024-.823-.345-1.144-.317-.317-.79-.368-1.265-.368h-3.03Zm-5.596 4.5h-3.03c-.686 0-1.096-.16-1.337-.39-.236-.227-.397-.606-.397-1.248v-5.1c0-.64.162-1.02.4-1.247.242-.231.653-.39 1.335-.39h3.03c.686 0 1.096.159 1.337.39.236.226.398.605.398 1.247v5.1c0 .64-.163 1.02-.4 1.247-.243.231-.654.39-1.336.39Zm-3.03-8.25c-.474 0-.948.051-1.265.368-.32.32-.345.779-.345 1.144v5.1c0 .365.024.823.345 1.144.317.317.79.369 1.266.369h3.03c.474 0 .948-.052 1.265-.37.32-.32.345-.778.345-1.143v-5.1c0-.365-.024-.823-.345-1.144-.317-.317-.79-.368-1.266-.368h-3.03Zm3.03-2.25h-3.03c-.686 0-1.096-.16-1.337-.39-.236-.227-.397-.606-.397-1.248v-1.35c0-.64.162-1.02.4-1.247.242-.231.653-.39 1.335-.39h3.03c.686 0 1.096.159 1.337.39.236.226.398.605.398 1.247v1.35c0 .64-.163 1.02-.4 1.247-.243.231-.654.39-1.336.39Zm-3.03-4.5c-.474 0-.948.051-1.265.368-.32.32-.345.779-.345 1.144v1.35c0 .365.024.823.345 1.144.317.317.79.369 1.266.369h3.03c.474 0 .948-.052 1.265-.37.32-.32.345-.778.345-1.143v-1.35c0-.365-.024-.823-.345-1.144-.317-.317-.79-.369-1.266-.369h-3.03Z"
        stroke="currentColor" />
</svg>
